X:1770
T:The Humors Of Castle Bernard
M:C|
L:1/8
B:O'Neill's 1770
R:Hornpipe
Z:"Transcribed by Bob Safranek, rjs@gsp.org"
K:D
  f>e | d>fA>d (3DFA d>f | a>fb>f a>gf>e | d>fA>f (3DFA d>f |(3efe (3dcB A>gf>e|
        d>fA>d (3DFA d>f | a>fb>f a>gf>e | d>^de>f (3gec (3ABc | d2 f2 d2 :|
|: A2 | c>de>f {a}g>ec>A | d>cd>e f>de>f | {a}g>fg>a b>ag>f |(3efd (3cdB A2 A>B|
        c>de>f {a}g>ec>A | d>cd>e f>de>f |  g>ba>g (3fed (3edc | d2 f2 d2 :|


